X:1
T:Veni Redemptor gentium
T:Veni Redemptor gentium
T:Hymnus Divi Ambrosii
T:Johann Hermann Schein (1586-1630)
C:Johann Hermann Schein (1586-1630)
%%score [ 1 2 3 4 ]
L:1/8
Q:1/2=80
M:2/2
K:Bb
V:1 treble nm="Soprano"
V:2 treble nm="Alto"
V:3 treble-8 nm="Tenor"
V:4 bass nm="Bass"
V:1
 G8 G4 G4 F4 G4 B4 A4 G8 | G8 A4 B4 c4 B4 c4 c4 d8 | d8 d4 c4 d4 B4 c4 B4 A8 | %3
w: 1.Ve- ni Red- emp- tor gen- ti- um,|o- sten- de par- tum Vir- gi- nis,|mi- re- tur om- ne sae- cu- lum,|
 G8 ^F4 G4 B4 c4 A4 A4 G16 |] %4
w: ta- lis de- cet par- tus De- um.|
V:2
 D8 D4 C4 D4 E4 D4 D4 D8 | D8 F4 G4 G4 F4 E4 E4 D8 | F8 F4 F4 F4 E4 E4 D4 D8 | %3
w: 1.Ve- ni Red- emp- tor gen- ti- um,|o- sten- de par- tum Vir- gi- nis,|mi- re- tur om- ne sae- cu- lum,|
 D8 D4 D4 E4 E4 E4 D4 D16 |] %4
w: ta- lis de- cet par- tus De- um.|
V:3
 B8 B4 G4 A4 c4 ^F2 G4 F2 G8 | B8 c4 G4 G4 B4 B4 A4 B8 | B8 B4 A4 B4 G4 G4 G4 ^F8 | %3
w: 1.Ve- ni Red- emp- tor gen- * ti- um,|o- sten- de par- tum Vir- gi- nis,|mi- re- tur om- ne sae- cu- lum,|
 B8 A4 B4 G4 G4 G4 ^F4 G16 |] %4
w: ta- lis de- cet par- tus De- um.|
V:4
 G,,8 G,4 E,4 D,4 C,4 D,4 D,4 G,,8 | G,8 F,4 E,4 E,4 D,4 C,4 C,4 B,,8 | %2
w: 1.Ve- ni Red- emp- tor gen- ti- um,|o- sten- de par- tum Vir- gi- nis,|
"_\n2.Non ex virili semine, sed mystico speramine, verbum Dei fact est caro, fructusque ventris floruit.\n\n3.Alvus tumescit virginis, claustra pudoris permanent, vexilla virtutum micant, versatur in templo Deus.\n\n4.Procedens de thalamo suo, pudoris au--la regis, gemin Gigas substantiae, alacris ut currat viam.\n\n5.Egressus eius a Patre, regressus eius ad Patrem, excurs usque ad inferos, recursus ad sedem Dei.\n\n6.Aequalis aeterne Patri, carnis trophae' accingere, infirma nostri corporis, virtute firmans perpetim.\n\n7.Praesepe iam fulget tuum, lumenque nox spirat novum, quod nulla nox interpolet, fideque iugi luceat.\n\n8.Deo Patri sit gloria, eiusque soli Filio, cum Spirito paracleto, et nunc et in perpetuum.\n" B,,8 B,,4 F,4 B,,4 E,4 C,4 G,,4 D,8 | %3
w: mi- re- tur om- ne sae- cu- lum,|
 G,8 D,4 G,4 E,4 E,4 C,4 D,4 G,,16 |] %4
w: ta- lis de- cet par- tus De- um.|

